wordpress/wp-content/plugins/google-analytics-for-wordpress/lite/assets/vue/img/icon-edd.svg

<svg width="28" height="28" viewBox="0 0 64 64" fill="none" xmlns="http://www.w3.org/2000/svg">
	<path
		d="M54.6439 9.35605C48.8466 3.55874 40.8682 0 32.0287 0C23.1892 0 15.1534 3.55874 9.35605 9.35605C3.55874 15.1534 0 23.1892 0 32.0287C0 40.8682 3.55874 48.8466 9.35605 54.6439C15.1534 60.4413 23.1318 64 31.9713 64C40.8108 64 48.7892 60.4413 54.5865 54.6439C60.3839 48.8466 63.9426 40.8682 63.9426 32.0287C63.9426 23.1892 60.4413 15.1534 54.6439 9.35605ZM53.5534 53.5534C48.0431 59.0637 40.409 62.5076 31.9713 62.5076C23.5336 62.5076 15.8996 59.1211 10.3892 53.5534C4.87892 47.9856 1.49238 40.409 1.49238 32.0287C1.49238 23.591 4.93632 15.957 10.4466 10.4466C15.957 4.93632 23.591 1.49238 32.0287 1.49238C40.4664 1.49238 48.1005 4.93632 53.6108 10.4466C59.1211 15.957 62.565 23.591 62.565 32.0287C62.5076 40.409 59.1211 48.043 53.5534 53.5534Z"
		fill="#1D2428"/>
	<path
		d="M59.5228 31.7417C59.408 16.6457 47.1246 4.47713 32.0287 4.47713C16.9327 4.47713 4.6493 16.6457 4.4771 31.7417L17.1049 19.1139L21.3524 23.3614L12.1112 32.6027H51.9462L42.7049 23.3614L46.9524 19.1139L59.5228 31.7417ZM32.0287 27.035L20.2619 14.6942H28.0681V8.60987C28.0681 7.06009 29.8475 5.73991 32.0287 5.73991C34.2098 5.73991 35.9892 7.00269 35.9892 8.60987V14.6942H43.7955L32.0287 27.035Z"
		fill="#1D2428"/>
	<path
		d="M35.4153 47.5265C34.7839 47.1247 33.9803 46.7803 33.0619 46.4359C32.3157 46.2063 31.7417 45.9193 31.2825 45.6897C30.8233 45.4601 30.4789 45.2305 30.2493 44.9435C30.0197 44.6565 29.9049 44.3695 29.9049 43.9677C29.9049 43.6807 30.0197 43.3937 30.1919 43.1067C30.3641 42.8197 30.6511 42.5901 31.0529 42.4753C31.4547 42.3031 31.9713 42.1883 32.6027 42.1883C33.1193 42.1883 33.5785 42.2457 34.0377 42.3031C34.4395 42.3605 34.8413 42.4753 35.1283 42.5901C35.4727 42.7049 35.7023 42.8197 35.9318 42.8771L36.6206 40.7534C36.2188 40.5238 35.6449 40.3516 35.0135 40.2368C34.4395 40.122 33.8081 40.0646 33.1193 40.0072V37.7686H31.1677V40.122C30.8807 40.1794 30.5363 40.2368 30.2493 40.3516C29.5031 40.5812 28.9292 40.8682 28.4126 41.27C27.896 41.6717 27.4942 42.0735 27.2646 42.5901C26.9776 43.1067 26.8628 43.6807 26.8628 44.2547C26.8628 44.9435 27.035 45.5749 27.4368 46.0915C27.7812 46.6081 28.2978 47.0673 28.9866 47.4691C29.6753 47.8708 30.4215 48.2152 31.3973 48.5022C32.0861 48.7318 32.6601 48.9614 33.0619 49.191C33.4637 49.4206 33.8081 49.7076 33.9803 49.9946C34.1525 50.2816 34.2673 50.626 34.2673 50.9704C34.2673 51.3722 34.1525 51.7166 33.9229 52.0036C33.6933 52.2906 33.3489 52.5202 32.8897 52.6924C32.4305 52.8646 31.9139 52.922 31.2825 52.922C30.7659 52.922 30.2493 52.8646 29.7901 52.8072C29.331 52.6924 28.8718 52.5776 28.4126 52.4628C28.0108 52.348 27.609 52.1758 27.2646 52.0036L26.5758 54.2421C26.8628 54.4143 27.2646 54.5865 27.7238 54.7013C28.183 54.8161 28.6996 54.9309 29.2736 55.0457C29.8475 55.1031 30.4215 55.1605 30.9955 55.1605H31.1103V57.4565H33.0619V54.9883C33.2915 54.9309 33.5211 54.8735 33.7507 54.8161C34.5543 54.5865 35.1857 54.2422 35.7023 53.8404C36.2188 53.4386 36.6206 52.9794 36.8502 52.4054C37.0798 51.8888 37.252 51.3148 37.252 50.6834C37.252 49.9946 37.0798 49.3632 36.7928 48.8466C36.5058 48.3874 36.0466 47.9282 35.4153 47.5265Z"
		fill="#1D2428"/>
</svg>

<svg width="28" height="28" viewBox="0 0 64 64" fill="none" xmlns="http://www.w3.org/2000/svg"><path d="M54.644 9.356A31.836 31.836 0 0032.029 0c-8.84 0-16.876 3.559-22.673 9.356C3.559 15.153 0 23.19 0 32.029c0 8.84 3.559 16.818 9.356 22.615A31.836 31.836 0 0031.971 64a31.84 31.84 0 0022.616-9.356 31.836 31.836 0 009.356-22.615c0-8.84-3.502-16.876-9.3-22.673zm-1.09 44.197c-5.51 5.51-13.145 8.955-21.583 8.955-8.437 0-16.071-3.387-21.582-8.955C4.88 47.986 1.492 40.41 1.492 32.03c0-8.438 3.444-16.072 8.955-21.582 5.51-5.51 13.144-8.955 21.582-8.955 8.437 0 16.071 3.444 21.582 8.955 5.51 5.51 8.954 13.144 8.954 21.582-.057 8.38-3.444 16.014-9.012 21.524z" fill="#2794DA"/><path d="M59.523 31.742C59.408 16.646 47.125 4.477 32.029 4.477S4.649 16.646 4.477 31.742l12.628-12.628 4.247 4.247-9.24 9.242h39.834l-9.241-9.242 4.247-4.247 12.57 12.628zm-27.494-4.707l-11.767-12.34h7.806V8.61c0-1.55 1.78-2.87 3.96-2.87 2.182 0 3.961 1.263 3.961 2.87v6.084h7.806L32.03 27.035zm3.386 20.491c-.631-.401-1.435-.746-2.353-1.09-.746-.23-1.32-.517-1.78-.746-.459-.23-.803-.46-1.033-.746a1.448 1.448 0 01-.344-.976c0-.287.115-.574.287-.861.172-.287.46-.517.86-.632.403-.172.92-.287 1.55-.287.517 0 .977.058 1.436.115.402.058.803.172 1.09.287.345.115.574.23.804.287l.689-2.124c-.402-.23-.976-.401-1.608-.516-.573-.115-1.205-.172-1.894-.23V37.77h-1.951v2.353c-.287.057-.632.115-.919.23-.746.23-1.32.516-1.836.918-.517.402-.919.803-1.148 1.32-.287.517-.402 1.09-.402 1.665 0 .688.172 1.32.574 1.837.344.516.86.975 1.55 1.377.688.402 1.435.746 2.41 1.033.69.23 1.263.46 1.665.689.402.23.746.517.918.804.173.287.287.631.287.975 0 .402-.114.747-.344 1.034-.23.287-.574.516-1.033.688-.46.173-.976.23-1.608.23a12.12 12.12 0 01-1.492-.115l-1.377-.344a6.841 6.841 0 01-1.148-.46l-.69 2.24c.288.171.69.343 1.149.458.459.115.976.23 1.55.345.573.057 1.148.114 1.721.114h.115v2.297h1.952v-2.469l.689-.172a5.652 5.652 0 001.951-.976c.517-.401.919-.86 1.148-1.435.23-.516.402-1.09.402-1.722 0-.688-.172-1.32-.46-1.836-.286-.46-.745-.919-1.377-1.32z" fill="#2794DA"/></svg>
